packages/kaspersky-hexa-ui-icons/src/iconsSVGs/48/Safe.svg

<svg width="48" height="48" viewBox="0 0 48 48" fill="none" xmlns="http://www.w3.org/2000/svg">
<path fill-rule="evenodd" clip-rule="evenodd" d="M24 13C17.9249 13 13 17.9249 13 24C13 30.0751 17.9249 35 24 35C30.0751 35 35 30.0751 35 24C35 17.9249 30.0751 13 24 13ZM24 33C19.0294 33 15 28.9706 15 24C15 19.0294 19.0294 15 24 15C28.9706 15 33 19.0294 33 24C33 26.3869 32.0518 28.6761 30.364 30.364C28.6761 32.0518 26.3869 33 24 33ZM28.17 21.25L29.66 19.76L28.24 18.34L26.75 19.83C26.2186 19.4773 25.6246 19.2295 25 19.1V17H23V19.1C22.3754 19.2295 21.7814 19.4773 21.25 19.83L19.76 18.34L18.34 19.76L19.83 21.25C19.4773 21.7814 19.2295 22.3754 19.1 23H17V25H19.1C19.2295 25.6246 19.4773 26.2186 19.83 26.75L18.34 28.24L19.76 29.66L21.25 28.17C21.7814 28.5227 22.3754 28.7705 23 28.9V31H25V28.9C25.6246 28.7705 26.2186 28.5227 26.75 28.17L28.24 29.66L29.66 28.24L28.17 26.75C28.5227 26.2186 28.7705 25.6246 28.9 25H31V23H28.9C28.7705 22.3754 28.5227 21.7814 28.17 21.25ZM24 27C22.3431 27 21 25.6569 21 24C21 22.3431 22.3431 21 24 21C25.6569 21 27 22.3431 27 24C27 25.6569 25.6569 27 24 27ZM44 15.28V7H4V41H44V32.72C44.6151 32.3649 44.9957 31.7102 45 31V29C44.9957 28.2898 44.6151 27.6351 44 27.28V20.72C44.6151 20.3649 44.9957 19.7102 45 19V17C44.9957 16.2898 44.6151 15.6351 44 15.28ZM6 39V9H42V15.28C41.3849 15.6351 41.0043 16.2898 41 17V19C41.0043 19.7102 41.3849 20.3649 42 20.72V27.28C41.3849 27.6351 41.0043 28.2898 41 29V31C41.0043 31.7102 41.3849 32.3649 42 32.72V39H6ZM45 3H3C1.34315 3 0 4.34315 0 6V42C0 43.6569 1.34315 45 3 45H45C46.6569 45 48 43.6569 48 42V6C48 4.34315 46.6569 3 45 3ZM46 42C46 42.5523 45.5523 43 45 43H3C2.44772 43 2 42.5523 2 42V6C2 5.44772 2.44772 5 3 5H45C45.5523 5 46 5.44772 46 6V42ZM8 11H10V13H8V11ZM8 15H10V17H8V15Z"  fill="currentColor"/>
</svg>

<svg xmlns="http://www.w3.org/2000/svg" width="48" height="48" fill="none" viewBox="0 0 48 48"><path fill="currentColor" fill-rule="evenodd" d="M24 13c-6.0751 0-11 4.9249-11 11s4.9249 11 11 11 11-4.9249 11-11-4.9249-11-11-11m0 20c-4.9706 0-9-4.0294-9-9s4.0294-9 9-9 9 4.0294 9 9a9 9 0 0 1-2.636 6.364A9 9 0 0 1 24 33m4.17-11.75 1.49-1.49-1.42-1.42-1.49 1.49A5 5 0 0 0 25 19.1V17h-2v2.1a5 5 0 0 0-1.75.73l-1.49-1.49-1.42 1.42 1.49 1.49A5 5 0 0 0 19.1 23H17v2h2.1a5 5 0 0 0 .73 1.75l-1.49 1.49 1.42 1.42 1.49-1.49a5 5 0 0 0 1.75.73V31h2v-2.1a5 5 0 0 0 1.75-.73l1.49 1.49 1.42-1.42-1.49-1.49A5 5 0 0 0 28.9 25H31v-2h-2.1a5 5 0 0 0-.73-1.75M24 27c-1.6569 0-3-1.3431-3-3s1.3431-3 3-3 3 1.3431 3 3-1.3431 3-3 3m20-11.72V7H4v34h40v-8.28A2 2 0 0 0 45 31v-2a2 2 0 0 0-1-1.72v-6.56A2 2 0 0 0 45 19v-2a2 2 0 0 0-1-1.72M6 39V9h36v6.28A2 2 0 0 0 41 17v2a2 2 0 0 0 1 1.72v6.56A2 2 0 0 0 41 29v2a2 2 0 0 0 1 1.72V39zM45 3H3C1.3432 3 0 4.3431 0 6v36c0 1.6569 1.3432 3 3 3h42c1.6569 0 3-1.3431 3-3V6c0-1.6569-1.3431-3-3-3m1 39c0 .5523-.4477 1-1 1H3c-.5523 0-1-.4477-1-1V6c0-.5523.4477-1 1-1h42c.5523 0 1 .4477 1 1zM8 11h2v2H8zm0 4h2v2H8z" clip-rule="evenodd"/></svg>
